symbols/web/no_sim/materialsymbolsrounded/no_sim_wght200grad200_24px.svg

<svg xmlns="http://www.w3.org/2000/svg" height="24" width="24"><path d="m19.75 17.025-1.65-1.65v-10.9q0-.25-.187-.438-.188-.187-.438-.187H10.85L8.7 6 7.525 4.8 9.65 2.675q.25-.25.55-.363.3-.112.625-.112h6.65q.975 0 1.625.65t.65 1.625Zm.225 5.4L6.475 8.95l-.575.6v9.975q0 .25.188.437.187.188.437.188h10.95q.25 0 .438-.188.187-.187.187-.437V18.25l1.65 1.65v.075q-.125.85-.762 1.337-.638.488-1.513.488H6.525q-.975 0-1.625-.65t-.65-1.625V8.775q0-.425.075-.625t.225-.375l.375-.375-3.45-3.425q-.25-.275-.25-.575 0-.3.275-.6.275-.25.588-.25.312 0 .612.25l18.475 18.5q.25.25.25.563 0 .312-.275.587-.275.275-.6.275-.325 0-.575-.3ZM13.5 10.775Zm-1.575 3.575Z"/></svg>

<svg xmlns="http://www.w3.org/2000/svg" height="24" width="24"><path d="M19.75 17.025 18.1 15.375V4.475Q18.1 4.225 17.913 4.037Q17.725 3.85 17.475 3.85H10.85L8.7 6L7.525 4.8L9.65 2.675Q9.9 2.425 10.2 2.312Q10.5 2.2 10.825 2.2H17.475Q18.45 2.2 19.1 2.85Q19.75 3.5 19.75 4.475ZM6.525 21.8Q5.55 21.8 4.9 21.15Q4.25 20.5 4.25 19.525V8.775Q4.25 8.35 4.325 8.15Q4.4 7.95 4.55 7.775L4.925 7.4L1.475 3.975Q1.225 3.7 1.225 3.4Q1.225 3.1 1.5 2.8Q1.775 2.55 2.088 2.55Q2.4 2.55 2.7 2.8L21.175 21.3Q21.425 21.55 21.425 21.863Q21.425 22.175 21.15 22.45Q20.875 22.725 20.55 22.725Q20.225 22.725 19.975 22.425L18.75 21.225Q18.55 21.5 18.25 21.65Q17.95 21.8 17.475 21.8ZM6.475 8.95 5.9 9.55V19.525Q5.9 19.775 6.088 19.962Q6.275 20.15 6.525 20.15H16.6Q16.825 20.15 17.038 20Q17.25 19.85 17.25 19.6ZM13.5 10.775Q13.5 10.775 13.5 10.775Q13.5 10.775 13.5 10.775ZM11.925 14.35Q11.925 14.35 11.925 14.35Q11.925 14.35 11.925 14.35Q11.925 14.35 11.925 14.35Q11.925 14.35 11.925 14.35Z"/></svg>
